X:1
T:The Day of All Days
T:Herbert George Tovey
T:The Day of All Days
T:Public Domain
T:Public Domain
C:Herbert George Tovey
Z:Public Domain
%%score ( 1 2 ) ( 3 4 )
L:1/8
M:6/8
K:G
V:1 treble 
V:2 treble 
V:3 bass 
V:4 bass 
V:1
 [B,G]>[B,F][B,E] [CF]>[CE][CD] | [B,E]>[B,F][B,G] [B,D]3 | [DB][EB][_EB] [DB]>[=Ec][DB] | [CE]6 | %4
w: 1.~Time with its tem- pests is|pass- ing a- way,|Some day, and soon it may|be,|
w: 2.~Oh, what a won- der- ful|joy to be there,|Prais- ing the Lamb that was|slain;|
w: 3.~That is the won- der- ful|day of all days,|That day when time shall be|o’er;|
 [CA]>[B,^G][CA] [Fc]>[FB][FA] | [EG]>[^DF][EG] [GB]3 | [G^c][GB][GA] [Ge]>[GB][Gc] | FDE [Fd]2 || %8
w: Je- sus will come, oh, that|glor- i- ous day!|Com- ing in glo- ry for|me. * * *|
w: Ris- ing to met Him, caught|up in the air!|Oh, He is com- ing a-|gain. * * *|
w: Tongues of all na- tions will|sing of His praise|On fair e- ter- ni- ty’s|shore. * * *|
"^Refrain" [CD] | [DB]>[C^A][DB] [Gd]2 [DB] | [EA]>[EB][EA] [CE]2 [^CE] | %11
w: |||
w: |||
w: |||
 [CA]>[B,^G][CA] [Fd]2 [DB] | [CA]<[B,G][CE] [B,D]2 [B,D] | [DB]>[^C^A][DB] [^Gd]2 [DB] | %14
w: |||
w: |||
w: |||
 [^CA]>[CB][CA] [CE]2 [CE] | [CD]>[CF][FA] [Fc]2 [FB] | [FA]>[CE][CF] [B,G]3 |] %17
w: |||
w: |||
w: |||
V:2
 x6 | x6 | x6 | x6 | x6 | x6 | x6 | d3- x2 || x | x6 | x6 | x6 | x6 | x6 | x6 | x6 | x6 |] %17
V:3
 [G,,D,]>[G,,D,][G,,D,] [A,,D,]>[A,,E,][A,,F,] | [E,G,]>[E,A,][E,B,] [G,B,]3 | %2
w: ~ ~ ~ ~ ~ ~|~ ~ ~ ~|
 G,[=G,B,][F,A,] [E,^G,]>[E,G,][E,G,] | E,3 A,,3 | [D,F,]>[D,^E,][D,F,] [D,A,]>[D,D][^D,C] | %5
w: ~ ~ ~ ~ ~ ~|~ ~|~ ~ ~ ~ ~ ~|
 [E,B,]>[E,A,][E,B,] [E,E]3 | [A,E][A,D][A,^C] [A,C]>[A,C]A, | A,F,G, A,C || [D,F,] | %9
w: ~ ~ ~ ~|~ ~ ~ ~ ~ ~|~ The day of all|is|
 G,>G,G, [G,B,]2 [G,D] | [C,C]>[C,D][C,A,] [A,,A,]2 [A,,G,] | [D,F,]>[D,^E,][D,F,] [D,A,]2 [D,F,] | %12
w: com- ing at last, The|days when sor- rows are|past, The day of all|
 [G,,G,]<[G,,D,]G, G,2 (G,/=F,/) | [E,^G,]>[E,=G,][E,^G,] [E,B,]2 [E,G,] | %14
w: days when I thro’ His *|with de- light His won-|
 [A,,A,]>[A,,G,][A,,G,] [A,,G,]2 [A,,G,] | [D,F,]>[D,A,][D,C] [D,E]2 [D,D] | %16
w: der- ful face. * *||
 [D,C]>[D,G,][D,A,] [G,,B,]3 |] %17
w: |
V:4
 x6 | x6 | ^G, x5 | A,6 | x6 | x6 | x5 A, | D,3- D,2 || x | G,>G,G, x3 | x6 | x6 | x2 G, G,2 G, | %13
w: ||~|~|||~|days *||day of all|||grace Shall see|
 x6 | x6 | x6 | x6 |] %17
w: ||||

